melody-of-light/img/icons/icomoon/compare.svg

<svg width="22" height="22" viewBox="0 0 22 22" fill="none" xmlns="http://www.w3.org/2000/svg">
<path fill-rule="evenodd" clip-rule="evenodd" d="M5.50039 18.9331C5.16902 18.9331 4.90039 18.6645 4.90039 18.3331L4.90039 11.9164C4.90039 11.5851 5.16902 11.3164 5.50039 11.3164C5.83176 11.3164 6.10039 11.5851 6.10039 11.9164L6.10039 18.3331C6.10039 18.6645 5.83176 18.9331 5.50039 18.9331Z" fill="#212123"/>
<path fill-rule="evenodd" clip-rule="evenodd" d="M11.0004 18.9331C10.669 18.9331 10.4004 18.6645 10.4004 18.3331L10.4004 3.66644C10.4004 3.33506 10.669 3.06644 11.0004 3.06644C11.3318 3.06644 11.6004 3.33506 11.6004 3.66644L11.6004 18.3331C11.6004 18.6645 11.3318 18.9331 11.0004 18.9331Z" fill="#212123"/>
<path fill-rule="evenodd" clip-rule="evenodd" d="M16.5004 18.9331C16.169 18.9331 15.9004 18.6645 15.9004 18.3331L15.9004 7.33311C15.9004 7.00173 16.169 6.7331 16.5004 6.7331C16.8318 6.7331 17.1004 7.00173 17.1004 7.33311L17.1004 18.3331C17.1004 18.6645 16.8318 18.9331 16.5004 18.9331Z" fill="#212123"/>
</svg>

<svg width="22" height="22" fill="none" xmlns="http://www.w3.org/2000/svg"><path fill-rule="evenodd" clip-rule="evenodd" d="M5.5 18.933a.6.6 0 01-.6-.6v-6.417a.6.6 0 011.2 0v6.417a.6.6 0 01-.6.6zm5.5 0a.6.6 0 01-.6-.6V3.666a.6.6 0 111.2 0v14.667a.6.6 0 01-.6.6zm5.5 0a.6.6 0 01-.6-.6v-11a.6.6 0 111.2 0v11a.6.6 0 01-.6.6z" fill="#212123"/></svg>
